X: 29925
T: O'Sullivan's March
R: jig
M: 6/8
K: Gmajor
D|:GBA ABd|edB A2 D|GBA ~B2 G|AGG GE D|
GBA ABd|edB A2 D|GBA ~B2 G:|1 AGG G2 D|2 AGG GB d||
e2 g e2 g|ege edB|ded dBd|dgB BAG|
cBc dcd|(3efg B A2 D|GBA ~B2 G|AGG G2 g||
~e3 ~e2d|ege edB|ded dBd|dgB BAG|
cBc dcd|(3efg B A2 D|GBA ~B2 G|AGG G2 D||

